communes/5746.svg

<?xml version="1.0" encoding="UTF-8"?>
<svg version="1.0" viewBox="0 0 603 763" xmlns="http://www.w3.org/2000/svg" xmlns:cc="http://creativecommons.org/ns#" xmlns:dc="http://purl.org/dc/elements/1.1/" xmlns:rdf="http://www.w3.org/1999/02/22-rdf-syntax-ns#" xmlns:xlink="http://www.w3.org/1999/xlink">
<metadata>
<rdf:RDF>
<cc:Work rdf:about="">
<dc:format>image/svg+xml</dc:format>
<dc:type rdf:resource="http://purl.org/dc/dcmitype/StillImage"/>
<dc:date>07-AUG-2006</dc:date>
<dc:creator>
<cc:Agent>
<dc:title>Jérôme BLUM (wagner51)</dc:title>
</cc:Agent>
</dc:creator>
<cc:license rdf:resource="http://creativecommons.org/licenses/GPL/2.0/"/>
<dc:coverage/>
<dc:description>Gabarit pour le Projet:Blasons de WIkipédia</dc:description>
<dc:subject>
<rdf:Bag>
<rdf:li>blason suisse modèle gabarit projet blasons</rdf:li>
</rdf:Bag>
</dc:subject>
<dc:language>fr</dc:language>
<dc:title>Gabrit d'un blason suisse</dc:title>
</cc:Work>
<cc:License rdf:about="http://creativecommons.org/licenses/GPL/2.0/">
<cc:permits rdf:resource="http://web.resource.org/cc/Reproduction"/>
<cc:permits rdf:resource="http://web.resource.org/cc/Distribution"/>
<cc:requires rdf:resource="http://web.resource.org/cc/Notice"/>
<cc:permits rdf:resource="http://web.resource.org/cc/DerivativeWorks"/>
<cc:requires rdf:resource="http://web.resource.org/cc/ShareAlike"/>
<cc:requires rdf:resource="http://web.resource.org/cc/SourceCode"/>
</cc:License>
</rdf:RDF>
</metadata>
<defs>
<radialGradient id="a" cx="858.04" cy="579.93" r="300" gradientTransform="matrix(1.215 1.5316e-24 1.4647e-23 1.2667 -839.19 -490.49)" gradientUnits="userSpaceOnUse">
<stop stop-color="#fff" stop-opacity=".31373" offset="0"/>
<stop stop-color="#fff" stop-opacity=".25098" offset=".19"/>
<stop stop-color="#6b6b6b" stop-opacity=".12549" offset=".6"/>
<stop stop-opacity=".12549" offset="1"/>
</radialGradient>
</defs>
<desc>Coat of Arms of Canton of Freiburg (Fribourg)</desc>
<g>
<path d="m1.5 1.5v458.87c0 166.31 134.31 301.13 300 301.13 165.69 0 300-134.82 300-301.13v-458.87h-600z" fill="#fcef3c"/>
<path d="m510.77 440.65v-36h-19.668v18.333h-9.776v-18.333h-19.668v18.333h-9.777v-18.333h-19.668v18.333h-9.776v-18.333h-19.668v36h5.334v28.666h-6.601v-18.334h-19.668v18.334h-16.398v-18.334h-19.668v18.334h-16.398v-18.334h-19.668v18.334h-8.199-8.199v-18.334h-19.67v18.334h-16.398v-18.334h-19.668v18.334h-16.398v-18.334h-19.668v18.334h-6.601v-28.666h5.334v-36h-19.668v18.333h-9.776v-18.333h-19.668v18.333h-9.777v-18.333h-19.668v18.333h-9.776v-18.333h-19.669v36l5.334-0.131v118l-5.334 0.131v33.333h188v-57.333c0-10.31 9.521-18.667 21.268-18.667s21.268 8.357 21.268 18.667v57.333h188v-33.333l-5.334-0.131v-118l5.333 0.131zm-359.08 46.75h-16.25v-25.25h16.25v25.25zm80.209 43.916h-16.25v-25.25h16.25v25.25zm155.45 0h-16.25v-25.25h16.25v25.25zm80.209-43.916h-16.25v-25.25h16.25v25.25z"/>
<line x1="510.77" x2="322.77" y1="558.65" y2="558.65" fill="none" stroke="#fcef3c" stroke-linecap="square" stroke-width="3.5"/>
<line x1="408.1" x2="408.1" y1="440.65" y2="591.98" fill="none" stroke="#fcef3c" stroke-linecap="square" stroke-width="3.5"/>
<line x1="505.43" x2="505.43" y1="440.65" y2="558.52" fill="none" stroke="#fcef3c" stroke-linecap="square" stroke-width="3.5"/>
<line x1="97.565" x2="97.565" y1="440.65" y2="558.52" fill="none" stroke="#fcef3c" stroke-linecap="square" stroke-width="3.5"/>
<line x1="510.77" x2="402.77" y1="440.65" y2="440.65" fill="none" stroke="#fcef3c" stroke-linecap="square" stroke-width="3.5"/>
<line x1="194.9" x2="408.1" y1="481.32" y2="481.32" fill="none" stroke="#fcef3c" stroke-width="3.5"/>
<line x1="92.231" x2="280.23" y1="558.65" y2="558.65" fill="none" stroke="#fcef3c" stroke-linecap="square" stroke-width="3.5"/>
<line x1="194.9" x2="194.9" y1="440.65" y2="591.98" fill="none" stroke="#fcef3c" stroke-width="3.5"/>
<line x1="92.231" x2="200.23" y1="440.65" y2="440.65" fill="none" stroke="#fcef3c" stroke-linecap="square" stroke-width="3.5"/>
<path d="m510.77 133.4v-36h-19.668v18.333h-9.776v-18.333h-19.668v18.333h-9.777v-18.333h-19.668v18.333h-9.776v-18.333h-19.668v36h5.334v28.667h-6.601v-18.333h-19.668v18.333h-16.398v-18.333h-19.668v18.333h-16.398v-18.333h-19.668v18.333h-8.199-8.199v-18.333h-19.67v18.333h-16.398v-18.333h-19.668v18.333h-16.398v-18.333h-19.668v18.333h-6.601v-28.667h5.334v-36h-19.668v18.333h-9.776v-18.333h-19.668v18.333h-9.777v-18.333h-19.668v18.333h-9.776v-18.333h-19.669v36l5.334-0.13v118l-5.334 0.13v33.333h188v-57.333c0-10.309 9.521-18.667 21.268-18.667s21.268 8.357 21.268 18.667v57.333h188v-33.333l-5.334-0.13v-118l5.333 0.13zm-356.41 46.75h-16.25v-25.25h16.25v25.25zm77.542 43.916h-16.25v-25.25h16.25v25.25zm155.45 0h-16.25v-25.25h16.25v25.25zm77.542-43.916h-16.25v-25.25h16.25v25.25z"/>
<line x1="510.77" x2="322.77" y1="251.4" y2="251.4" fill="none" stroke="#fcef3c" stroke-linecap="square" stroke-width="3.5"/>
<line x1="408.1" x2="408.1" y1="133.4" y2="284.73" fill="none" stroke="#fcef3c" stroke-linecap="square" stroke-width="3.5"/>
<line x1="505.43" x2="505.43" y1="133.4" y2="251.27" fill="none" stroke="#fcef3c" stroke-linecap="square" stroke-width="3.5"/>
<line x1="97.565" x2="97.565" y1="133.4" y2="251.27" fill="none" stroke="#fcef3c" stroke-linecap="square" stroke-width="3.5"/>
<line x1="510.77" x2="402.77" y1="133.4" y2="133.4" fill="none" stroke="#fcef3c" stroke-linecap="square" stroke-width="3.5"/>
<line x1="194.9" x2="408.1" y1="174.07" y2="174.07" fill="none" stroke="#fcef3c" stroke-width="3.5"/>
<line x1="92.231" x2="280.23" y1="251.4" y2="251.4" fill="none" stroke="#fcef3c" stroke-linecap="square" stroke-width="3.5"/>
<line x1="194.9" x2="194.9" y1="133.4" y2="284.73" fill="none" stroke="#fcef3c" stroke-width="3.5"/>
<line x1="92.231" x2="200.23" y1="133.4" y2="133.4" fill="none" stroke="#fcef3c" stroke-linecap="square" stroke-width="3.5"/>
</g>
<g>
<path d="m1.5 1.5v458.87c0 166.31 134.31 301.13 300 301.13 165.69 0 300-134.82 300-301.13v-458.87h-600z" fill="url(#a)"/>
<path d="m1.5 1.5v458.87c0 166.31 134.31 301.13 300 301.13 165.69 0 300-134.82 300-301.13v-458.87h-600z" fill="none" stroke="#000" stroke-width="3"/>
</g>
</svg>

<?xml version="1.0" encoding="UTF-8" standalone="no"?>
<svg
   xmlns:dc="http://purl.org/dc/elements/1.1/"
   xmlns:cc="http://creativecommons.org/ns#"
   xmlns:rdf="http://www.w3.org/1999/02/22-rdf-syntax-ns#"
   xmlns:svg="http://www.w3.org/2000/svg"
   xmlns="http://www.w3.org/2000/svg"
   xmlns:xlink="http://www.w3.org/1999/xlink"
   xmlns:sodipodi="http://sodipodi.sourceforge.net/DTD/sodipodi-0.dtd"
   xmlns:inkscape="http://www.inkscape.org/namespaces/inkscape"
   height="763"
   width="603"
   version="1.0"
   id="svg20"
   sodipodi:version="0.32"
   inkscape:version="0.46"
   sodipodi:docname="Bavois-coat_of_arms.svg"
   sodipodi:docbase="C:\Documents and Settings\Steve\Bureau\Blason Villages Suisse pour Wikipédia (par Delta-9)"
   inkscape:output_extension="org.inkscape.output.svg.inkscape">
  <metadata
     id="metadata31">
    <rdf:RDF>
      <cc:Work
         rdf:about="">
        <dc:format>image/svg+xml</dc:format>
        <dc:type
           rdf:resource="http://purl.org/dc/dcmitype/StillImage" />
        <dc:date>07-AUG-2006</dc:date>
        <dc:creator>
          <cc:Agent>
            <dc:title>Jérôme BLUM (wagner51)</dc:title>
          </cc:Agent>
        </dc:creator>
        <cc:license
           rdf:resource="http://creativecommons.org/licenses/GPL/2.0/" />
        <dc:coverage />
        <dc:description>Gabarit pour le Projet:Blasons de WIkipédia</dc:description>
        <dc:subject>
          <rdf:Bag>
            <rdf:li>blason suisse modèle gabarit projet blasons</rdf:li>
          </rdf:Bag>
        </dc:subject>
        <dc:language>fr</dc:language>
        <dc:title>Gabrit d'un blason suisse</dc:title>
      </cc:Work>
      <cc:License
         rdf:about="http://creativecommons.org/licenses/GPL/2.0/">
        <cc:permits
           rdf:resource="http://web.resource.org/cc/Reproduction" />
        <cc:permits
           rdf:resource="http://web.resource.org/cc/Distribution" />
        <cc:requires
           rdf:resource="http://web.resource.org/cc/Notice" />
        <cc:permits
           rdf:resource="http://web.resource.org/cc/DerivativeWorks" />
        <cc:requires
           rdf:resource="http://web.resource.org/cc/ShareAlike" />
        <cc:requires
           rdf:resource="http://web.resource.org/cc/SourceCode" />
      </cc:License>
    </rdf:RDF>
  </metadata>
  <defs
     id="defs29"><inkscape:perspective
   sodipodi:type="inkscape:persp3d"
   inkscape:vp_x="0 : 381.5 : 1"
   inkscape:vp_y="0 : 1000 : 0"
   inkscape:vp_z="603 : 381.5 : 1"
   inkscape:persp3d-origin="301.5 : 254.33333 : 1"
   id="perspective28" />
<linearGradient
   id="linearGradient2893">
  <stop
     style="stop-color:#ffffff;stop-opacity:0.3137255;"
     offset="0"
     id="stop2895" />
  <stop
     id="stop2897"
     offset="0.19"
     style="stop-color:#ffffff;stop-opacity:0.25098041;" />
  <stop
     style="stop-color:#6b6b6b;stop-opacity:0.1254902;"
     offset="0.60000002"
     id="stop2901" />
  <stop
     style="stop-color:#000000;stop-opacity:0.1254902;"
     offset="1"
     id="stop2899" />
</linearGradient>
<linearGradient
   id="linearGradient2955">
  <stop
     style="stop-color:white;stop-opacity:0;"
     offset="0"
     id="stop2965" />
  <stop
     style="stop-color:black;stop-opacity:0.64583331;"
     offset="1"
     id="stop2959" />
</linearGradient>
<radialGradient
   inkscape:collect="always"
   xlink:href="#linearGradient2893"
   id="radialGradient3236"
   gradientUnits="userSpaceOnUse"
   gradientTransform="matrix(1.215027,1.531577e-24,1.464684e-23,1.266667,-839.1924,-490.4894)"
   cx="858.04236"
   cy="579.93323"
   fx="858.04236"
   fy="579.93323"
   r="300" />
<inkscape:perspective
   id="perspective2556"
   inkscape:persp3d-origin="297.63751 : 280.63 : 1"
   inkscape:vp_z="595.27502 : 420.94501 : 1"
   inkscape:vp_y="0 : 1000 : 0"
   inkscape:vp_x="0 : 420.94501 : 1"
   sodipodi:type="inkscape:persp3d" />

	
	

	

		
		
	
		
		
	
			
				
			
				
			
				
			
				
			
				
			
			
				
			
			
				
		
			
				
			
				
			
				
			
				
			
				
			
			
				
			
			
				
		<inkscape:perspective
   id="perspective2819"
   inkscape:persp3d-origin="297.63751 : 280.63 : 1"
   inkscape:vp_z="595.27502 : 420.94501 : 1"
   inkscape:vp_y="0 : 1000 : 0"
   inkscape:vp_x="0 : 420.94501 : 1"
   sodipodi:type="inkscape:persp3d" />

	
	

	

		
		
	
		
		
	
			
				
			
				
			
				
			
				
			
				
			
			
				
			
			
				
		
			
				
			
				
			
				
			
				
			
				
			
			
				
			
			
				
		</defs>
  <sodipodi:namedview
     inkscape:window-height="968"
     inkscape:window-width="1280"
     inkscape:pageshadow="2"
     inkscape:pageopacity="0.0"
     guidetolerance="10.0"
     gridtolerance="10.0"
     objecttolerance="10.0"
     borderopacity="1.0"
     bordercolor="#666666"
     pagecolor="#ffffff"
     id="base"
     inkscape:zoom="0.92652193"
     inkscape:cx="173.53758"
     inkscape:cy="399.00713"
     inkscape:window-x="1280"
     inkscape:window-y="22"
     inkscape:current-layer="layer2"
     showgrid="false"
     showguides="true"
     inkscape:guide-bbox="true">
    <sodipodi:guide
       orientation="horizontal"
       position="761.5"
       id="guide1885" />
    <sodipodi:guide
       orientation="vertical"
       position="1.5"
       id="guide1887" />
    <sodipodi:guide
       orientation="horizontal"
       position="1.5"
       id="guide1889" />
    <sodipodi:guide
       orientation="vertical"
       position="601.5"
       id="guide1891" />
    <sodipodi:guide
       orientation="vertical"
       position="301.50081"
       id="guide1893" />
  </sodipodi:namedview>
  <desc
     id="desc22">Coat of Arms of Canton of Freiburg (Fribourg)</desc>
  <g
     inkscape:groupmode="layer"
     id="layer1"
     inkscape:label="Fond écu"
     style="opacity:1;display:inline"
     sodipodi:insensitive="true">
    <path
       id="path1899"
       d="M 1.5,1.49998 L 1.5,460.3679 C 1.5,626.6785 135.81456,761.5 301.49999,761.5 C 467.18543,761.5 601.5,626.6785 601.5,460.3679 L 601.5,1.49998 L 1.5,1.49998 z"
       style="fill:#fcef3c;fill-opacity:1" />
  </g>
  <g
     inkscape:groupmode="layer"
     id="layer2"
     inkscape:label="Meubles"
     style="opacity:1;display:inline"
     sodipodi:insensitive="true">
    <path
       d="M 510.768,440.65 L 510.768,404.65 L 491.1,404.65 L 491.1,422.983 L 481.324,422.983 L 481.324,404.65 L 461.656,404.65 L 461.656,422.983 L 451.879,422.983 L 451.879,404.65 L 432.211,404.65 L 432.211,422.983 L 422.435,422.983 L 422.435,404.65 L 402.767,404.65 L 402.767,440.65 L 408.101,440.65 L 408.101,469.316 L 401.5,469.316 L 401.5,450.982 L 381.832,450.982 L 381.832,469.316 L 365.434,469.316 L 365.434,450.982 L 345.766,450.982 L 345.766,469.316 L 329.368,469.316 L 329.368,450.982 L 309.7,450.982 L 309.7,469.316 L 301.501,469.316 L 293.302,469.316 L 293.302,450.982 L 273.632,450.982 L 273.632,469.316 L 257.234,469.316 L 257.234,450.982 L 237.566,450.982 L 237.566,469.316 L 221.168,469.316 L 221.168,450.982 L 201.5,450.982 L 201.5,469.316 L 194.899,469.316 L 194.899,440.65 L 200.233,440.65 L 200.233,404.65 L 180.565,404.65 L 180.565,422.983 L 170.789,422.983 L 170.789,404.65 L 151.121,404.65 L 151.121,422.983 L 141.344,422.983 L 141.344,404.65 L 121.676,404.65 L 121.676,422.983 L 111.9,422.983 L 111.9,404.65 L 92.231,404.65 L 92.231,440.65 L 97.565,440.519 L 97.565,558.519 L 92.231,558.65 L 92.231,591.983 L 280.232,591.983 L 280.232,534.65 C 280.232,524.34 289.753,515.983 301.5,515.983 C 313.247,515.983 322.768,524.34 322.768,534.65 L 322.768,591.983 L 510.769,591.983 L 510.769,558.65 L 505.435,558.519 L 505.435,440.519 L 510.768,440.65 z M 151.69,487.4 L 135.44,487.4 L 135.44,462.15 L 151.69,462.15 L 151.69,487.4 z M 231.899,531.316 L 215.649,531.316 L 215.649,506.066 L 231.899,506.066 L 231.899,531.316 z M 387.35,531.316 L 371.1,531.316 L 371.1,506.066 L 387.35,506.066 L 387.35,531.316 z M 467.559,487.4 L 451.309,487.4 L 451.309,462.15 L 467.559,462.15 L 467.559,487.4 z"
       id="path2768" />
    <line
       id="line2772"
       y2="558.65002"
       x2="322.767"
       y1="558.65002"
       x1="510.76801"
       style="fill:none;stroke:#fcef3c;stroke-width:3.5;stroke-linecap:square" />
    <line
       id="line2774"
       y2="591.98303"
       x2="408.10001"
       y1="440.65002"
       x1="408.10001"
       style="fill:none;stroke:#fcef3c;stroke-width:3.5;stroke-linecap:square" />
    <line
       id="line2776"
       y2="558.51904"
       x2="505.43399"
       y1="440.65002"
       x1="505.43399"
       style="fill:none;stroke:#fcef3c;stroke-width:3.5;stroke-linecap:square" />
    <line
       id="line2778"
       y2="558.51904"
       x2="97.564995"
       y1="440.65002"
       x1="97.564995"
       style="fill:none;stroke:#fcef3c;stroke-width:3.5;stroke-linecap:square" />
    <line
       id="line2780"
       y2="440.65002"
       x2="402.76599"
       y1="440.65002"
       x1="510.76801"
       style="fill:none;stroke:#fcef3c;stroke-width:3.5;stroke-linecap:square" />
    <line
       id="line2782"
       y2="481.31601"
       x2="408.10001"
       y1="481.31601"
       x1="194.899"
       style="fill:none;stroke:#fcef3c;stroke-width:3.5" />
    <line
       id="line2784"
       y2="558.65002"
       x2="280.23199"
       y1="558.65002"
       x1="92.230995"
       style="fill:none;stroke:#fcef3c;stroke-width:3.5;stroke-linecap:square" />
    <line
       id="line2786"
       y2="591.98303"
       x2="194.899"
       y1="440.65002"
       x1="194.899"
       style="fill:none;stroke:#fcef3c;stroke-width:3.5" />
    <line
       id="line2788"
       y2="440.65002"
       x2="200.233"
       y1="440.65002"
       x1="92.230995"
       style="fill:none;stroke:#fcef3c;stroke-width:3.5;stroke-linecap:square" />
    <path
       d="M 510.768,133.4 L 510.768,97.4 L 491.1,97.4 L 491.1,115.733 L 481.324,115.733 L 481.324,97.4 L 461.656,97.4 L 461.656,115.733 L 451.879,115.733 L 451.879,97.4 L 432.211,97.4 L 432.211,115.733 L 422.435,115.733 L 422.435,97.4 L 402.767,97.4 L 402.767,133.4 L 408.101,133.4 L 408.101,162.067 L 401.5,162.067 L 401.5,143.734 L 381.832,143.734 L 381.832,162.067 L 365.434,162.067 L 365.434,143.734 L 345.766,143.734 L 345.766,162.067 L 329.368,162.067 L 329.368,143.734 L 309.7,143.734 L 309.7,162.067 L 301.501,162.067 L 293.302,162.067 L 293.302,143.734 L 273.632,143.734 L 273.632,162.067 L 257.234,162.067 L 257.234,143.734 L 237.566,143.734 L 237.566,162.067 L 221.168,162.067 L 221.168,143.734 L 201.5,143.734 L 201.5,162.067 L 194.899,162.067 L 194.899,133.4 L 200.233,133.4 L 200.233,97.4 L 180.565,97.4 L 180.565,115.733 L 170.789,115.733 L 170.789,97.4 L 151.121,97.4 L 151.121,115.733 L 141.344,115.733 L 141.344,97.4 L 121.676,97.4 L 121.676,115.733 L 111.9,115.733 L 111.9,97.4 L 92.231,97.4 L 92.231,133.4 L 97.565,133.27 L 97.565,251.27 L 92.231,251.4 L 92.231,284.733 L 280.232,284.733 L 280.232,227.4 C 280.232,217.091 289.753,208.733 301.5,208.733 C 313.247,208.733 322.768,217.09 322.768,227.4 L 322.768,284.733 L 510.769,284.733 L 510.769,251.4 L 505.435,251.27 L 505.435,133.27 L 510.768,133.4 z M 154.357,180.15 L 138.107,180.15 L 138.107,154.9 L 154.357,154.9 L 154.357,180.15 z M 231.899,224.066 L 215.649,224.066 L 215.649,198.816 L 231.899,198.816 L 231.899,224.066 z M 387.35,224.066 L 371.1,224.066 L 371.1,198.816 L 387.35,198.816 L 387.35,224.066 z M 464.892,180.15 L 448.642,180.15 L 448.642,154.9 L 464.892,154.9 L 464.892,180.15 z"
       id="path2792" />
    <line
       id="line2796"
       y2="251.40001"
       x2="322.767"
       y1="251.40001"
       x1="510.76801"
       style="fill:none;stroke:#fcef3c;stroke-width:3.5;stroke-linecap:square" />
    <line
       id="line2798"
       y2="284.73303"
       x2="408.10001"
       y1="133.40001"
       x1="408.10001"
       style="fill:none;stroke:#fcef3c;stroke-width:3.5;stroke-linecap:square" />
    <line
       id="line2800"
       y2="251.27"
       x2="505.43399"
       y1="133.40001"
       x1="505.43399"
       style="fill:none;stroke:#fcef3c;stroke-width:3.5;stroke-linecap:square" />
    <line
       id="line2802"
       y2="251.27"
       x2="97.564995"
       y1="133.40001"
       x1="97.564995"
       style="fill:none;stroke:#fcef3c;stroke-width:3.5;stroke-linecap:square" />
    <line
       id="line2804"
       y2="133.40001"
       x2="402.76599"
       y1="133.40001"
       x1="510.76801"
       style="fill:none;stroke:#fcef3c;stroke-width:3.5;stroke-linecap:square" />
    <line
       id="line2806"
       y2="174.06599"
       x2="408.10001"
       y1="174.06599"
       x1="194.899"
       style="fill:none;stroke:#fcef3c;stroke-width:3.5" />
    <line
       id="line2808"
       y2="251.40001"
       x2="280.23199"
       y1="251.40001"
       x1="92.230995"
       style="fill:none;stroke:#fcef3c;stroke-width:3.5;stroke-linecap:square" />
    <line
       id="line2810"
       y2="284.73303"
       x2="194.899"
       y1="133.40001"
       x1="194.899"
       style="fill:none;stroke:#fcef3c;stroke-width:3.5" />
    <line
       id="line2812"
       y2="133.40001"
       x2="200.233"
       y1="133.40001"
       x1="92.230995"
       style="fill:none;stroke:#fcef3c;stroke-width:3.5;stroke-linecap:square" />
  </g>
  <g
     inkscape:groupmode="layer"
     id="layer3"
     inkscape:label="Reflet final"
     style="display:inline"
     sodipodi:insensitive="true">
    <path
       style="fill:url(#radialGradient3236);fill-opacity:1"
       d="M 1.5,1.5 L 1.5,460.3679 C 1.5,626.67854 135.81454,761.5 301.49993,761.5 C 467.1854,761.5 601.5,626.67854 601.5,460.3679 L 601.5,1.5 L 1.5,1.5 z"
       id="path2346" />
  </g>
  <g
     inkscape:groupmode="layer"
     id="layer4"
     inkscape:label="Contour final"
     style="display:inline"
     sodipodi:insensitive="true">
    <path
       style="fill:none;fill-opacity:1;stroke:#000000;stroke-width:3;stroke-miterlimit:4;stroke-dasharray:none;stroke-opacity:1"
       d="M 1.5,1.5 L 1.5,460.36794 C 1.5,626.67854 135.81454,761.5 301.49993,761.5 C 467.1854,761.5 601.5,626.67854 601.5,460.36794 L 601.5,1.5 L 1.5,1.5 z "
       id="path3239" />
  </g>
</svg>
